X:305
T:Travers' Reel* 
B:CRE2.202 (gan ainm)
F:file ID: cre.2/305trav
N:Sometimes spelled as "Traver's"
L:1/8
M:C
R:reel % A-B-A
Q:180
K:G
ge|d2GB B2GB|dBGB ABGE|DEGB g2ea|gedB ab/a/ge|
d2GB B2GB|dBAB G2GE|DEGA B2ba|gedB AB/A/GE||
A|Bddf edBd|d2gd edg2|Bdde g2ga|gedB A2GA|
(3Bcd ef edBc|d2gd edg2|Bcde g2ga|gedB (3aba"_DC"||

%%%

